src/front_assets/svg/link.svg

<?xml version="1.0" encoding="UTF-8"?>
<svg width="42px" height="42px" viewBox="0 0 42 42" version="1.1" xmlns="http://www.w3.org/2000/svg" xmlns:xlink="http://www.w3.org/1999/xlink">
    <!-- Generator: Sketch 57 (83077) - https://sketch.com -->
    <title>btn/share/copylink</title>
    <desc>Created with Sketch.</desc>
    <defs>
        <rect id="path-1" x="0" y="0" width="42" height="42" rx="21"></rect>
    </defs>
    <g id="弹窗" stroke="none" stroke-width="1" fill="none" fill-rule="evenodd">
        <g id="share-on" transform="translate(-530.000000, -540.000000)">
            <g id="btn/share/copylink" transform="translate(530.000000, 540.000000)">
                <mask id="mask-2" fill="white">
                    <use xlink:href="#path-1"></use>
                </mask>
                <use id="矩形备份-3" fill="#52BA5B" xlink:href="#path-1"></use>
                <path d="M23.3808586,18.1195215 C23.2300211,17.9496046 23.0692798,17.7914714 22.8997309,17.6462002 L22.8997309,17.6462002 C22.5350632,17.2372249 21.9520316,17.2280653 21.5775877,17.625429 C21.2031438,18.0227927 21.1703404,18.6854827 21.5031993,19.1282138 L21.5031993,19.1282138 C21.5701447,19.2192573 21.6497336,19.2972096 21.7388077,19.3589771 C21.8289066,19.4435903 21.9190054,19.527178 22.0000943,19.6210217 L22.0789308,19.710763 C23.0700177,20.8389395 22.7735926,22.7768389 21.7834066,23.9039897 L17.5568713,28.7136109 C16.5641822,29.8393601 14.9586723,29.8393601 13.9659831,28.7136109 L13.8862457,28.6228439 C12.8959602,27.4940705 12.8959602,25.6655675 13.8862457,24.5367941 L15.7535436,22.4122328 C16.2151938,22.0262097 16.3145276,21.2872688 15.9754119,20.761762 C15.6362961,20.2362552 14.987147,20.1231812 14.5254968,20.5092043 L14.5254968,20.5056146 L14.505675,20.5266397 C14.4321826,20.586702 14.3658555,20.657377 14.3083586,20.7368908 L12.3680807,22.8035048 C10.5439731,24.8920989 10.5439731,28.2654879 12.3680807,30.3540819 L12.4469171,30.4438233 C14.2819166,32.5187256 17.2440913,32.5187256 19.0790908,30.4438233 L23.3042746,25.6326636 C25.1256221,23.5563062 25.2801416,20.2815177 23.4587941,18.2066987 L23.3808586,18.1195215 Z M23.526474,18.2280899 L29.6284849,11.5573358 L29.5495018,11.4724785 C27.711597,9.50917385 24.7428944,9.50917385 22.9049897,11.4724785 L18.6719453,16.021315 C16.8445014,17.9846707 16.7438543,20.8218141 18.5712982,22.7841999 L18.6489274,22.8661479 C18.7319725,22.9553693 18.8181769,23.0392568 18.9061867,23.11975 C18.970056,23.1965722 19.0448513,23.262037 19.1277908,23.3137095 L19.1277908,23.3137095 L19.1277908,23.3137095 C19.4714708,23.5276936 19.9049608,23.4751519 20.1956279,23.184281 C20.486295,22.8934101 20.565818,22.432579 20.3915208,22.0490932 C20.2660124,21.8060976 20.0973364,21.5919275 19.8950555,21.4187246 L19.8178777,21.3396861 C18.8249469,20.2729086 19.2022606,18.7251113 20.19474,17.6588186 L24.4304924,13.1109518 C25.4236908,12.0448252 27.0330573,12.0448252 28.0262557,13.1109518 L28.1052388,13.1943544 C29.0973255,14.262472 29.0973255,15.9918509 28.1052388,17.0599685 L26.2407857,19.0645405 C25.7927189,19.4161773 25.6839343,20.0856737 25.9946052,20.5796158 C26.3052762,21.0735578 26.9240267,21.2148663 27.394842,20.8993979 L27.400258,20.9061865 L27.4291433,20.8775775 C27.5180816,20.8134659 27.5972494,20.734953 27.663836,20.644826 L29.6289362,18.6969871 C31.4570213,16.7228871 31.4570213,13.5328905 29.6289362,11.5587905 L29.6289362,11.5587905 L23.526474,18.2280899 Z" id="椭圆_2_拷贝_6" fill="#FFFFFF" mask="url(#mask-2)"></path>
            </g>
        </g>
    </g>
</svg>

<svg xmlns="http://www.w3.org/2000/svg" xmlns:xlink="http://www.w3.org/1999/xlink" width="42" height="42"><defs><rect id="a" width="42" height="42" x="0" y="0" rx="21"/></defs><g fill="none" fill-rule="evenodd"><mask id="b" fill="#fff"><use xlink:href="#a"/></mask><use xlink:href="#a" fill="#52BA5B"/><path fill="#FFF" d="M23.38 18.12a5 5 0 0 0-.48-.474.874.874 0 0 0-1.322-.02c-.375.397-.408 1.06-.075 1.502q.102.138.236.231c.09.085.18.168.261.262l.079.09c.991 1.128.695 3.066-.296 4.193l-4.226 4.81c-.993 1.125-2.598 1.125-3.591 0l-.08-.091c-.99-1.129-.99-2.957 0-4.086l1.868-2.125c.461-.386.56-1.125.221-1.65-.339-.526-.988-.639-1.45-.253v-.003l-.02.02q-.11.09-.197.21l-1.94 2.068c-1.824 2.088-1.824 5.461 0 7.55l.079.09c1.835 2.075 4.797 2.075 6.632 0l4.225-4.811c1.822-2.077 1.976-5.351.155-7.426zm.146.108 6.102-6.67-.078-.086c-1.838-1.963-4.807-1.963-6.645 0l-4.233 4.55c-1.827 1.963-1.928 4.8-.1 6.762l.077.082q.125.134.257.254a1 1 0 0 0 .222.194.855.855 0 0 0 1.068-.13c.29-.29.37-.751.196-1.135a2.1 2.1 0 0 0-.497-.63l-.077-.08c-.993-1.066-.616-2.614.377-3.68l4.235-4.548c.994-1.066 2.603-1.066 3.596 0l.08.083c.991 1.068.991 2.798 0 3.866l-1.865 2.005c-.448.351-.557 1.02-.246 1.515.31.494.929.635 1.4.32l.005.006.03-.028a1 1 0 0 0 .234-.233l1.965-1.948c1.828-1.974 1.828-5.164 0-7.138z" mask="url(#b)"/></g></svg>
